X:66
T:The Donegall Reel        Allan's   #66  pp17
C:Trad/Anon.
B:Allan's Irish Fiddler (pub. Mozart Allen,  Glascow) date unknown
Z:FROM ALLAN'S TO NOTEWORTHY, FROM NOTEWORTHY TO ABC, MIDI AND .TXT BY VINCE
BRENNAN Dec. 2002 (HTTP://WWW.SOSYOURMOM.COM)
I:abc2nwc
M:2/2
L:1/8
K:D
(3(A,B,C|D2)(DE) FDFA|dFAF BFAF|E2(EF) {A}GFGA|BdAF EGFE|
D2(DE) FDFA|dABF ABde| (3(fgf)  (3(efe) dBAG| (3(FGF)  (3(EFE) D2:|
|:A2|defg afdf|afdf a2(gf)|edef gfed|edef g2(fe)|
defg afdf|afdf abag| (3(fgf)  (3(efe) dBAG| (3(FGF)  (3(EFE) D2:|
